X: 13242
T: Fisherman's Island, The
R: reel
M: 4/4
K: Dmajor
|:D2 FA d2 cA|BAGB AFDF|GEFD EFGA|(3Bcd ed cAAg|
fd d2 edcA|BcdB AGFD|EFGA (3Bcd ed|cAGE FD D2:|
|:fd d2 AF F2|DFAd fdef|ge e2 Be e2|dfed cAGE|
DF F2 AddA|Bg g2 edcB|Adfa gbed|1 cAGE FD D2:|

